X: 2589
T: Ballystreagh
R: jig
M: 6/8
K: Gmajor
f|:gag gfe|d^cd GB/c/d|gag gfg|aba afd|
gag gfe|d^cd GB/c/d|1 ege ded|BAF GBd:|2 e3 d3|BAF G3||
|:GBd GB/c/d|edB dBA|GBA GBA|GED DB,D|
GBd GB/c/d|edB dBA|1 edB dBA|GFA G3:|2 GBd cee|ddf g3||

